atari2600/_inc/system.svg

<?xml version="1.0" encoding="utf-8"?>
<svg id="Ebene_1" enable-background="new 0 0 566.924 121.752" version="1.1" y="0px" x="0px" xmlns="http://www.w3.org/2000/svg">
  <g id="g3" fill="#fff" transform="matrix(0.352781, 0, 0, 0.352781, 0, -1.164347)">
    <g id="_x23_ffffffff">
      <path id="path6" d="m207.01 5.277c4.724-6.043 14.501-7.076 20.297-2.006 2.37 1.996 4.031 4.75 4.88 7.715 10.73 36.92 21.508 73.822 32.223 110.75-6.332 0.006-12.667-0.012-18.999 0.006-2.987-10.18-5.903-20.377-8.852-30.566-12.246-0.025-24.485-0.006-36.73-0.012-2.998 10.184-5.958 20.379-8.901 30.582-6.298-0.021-12.596-0.004-18.895-0.01 10.194-35.221 20.4-70.439 30.643-105.65 1.22-3.686 1.68-7.803 4.33-10.813m11.18 22.625c-4.49 15.295-8.889 30.619-13.354 45.922 8.9 0.043 17.796 0.016 26.692 0.016-4.45-15.313-8.88-30.625-13.34-45.938z"/>
      <path id="path8" d="m340.41 6.072c3.301-4.787 9.681-7.109 15.296-5.631 5.142 1.184 9.075 5.615 10.434 10.604 10.719 36.893 21.476 73.773 32.194 110.67-6.342 0.049-12.679 0-19.02 0.025-2.949-10.188-5.865-20.387-8.835-30.576-12.225 0.006-24.447-0.021-36.671 0.01-2.922 10.195-5.935 20.367-8.856 30.563-6.293 0.006-12.581-0.006-18.874 0.006 10.188-35.414 20.497-70.797 30.768-106.19 1.07-3.203 1.49-6.726 3.56-9.488m-1.54 67.768c8.863 0.012 17.722 0.006 26.584 0.006-4.409-15.346-8.89-30.67-13.284-46.014-4.43 15.338-8.9 30.662-13.3 46.008z"/>
      <path id="path10" d="m250.24 0.256h68.719v18.533c-8.436 0.006-16.865-0.01-25.296 0.006 0 34.313 0.006 68.627-0.005 102.94h-18.122c0-34.311-0.005-68.625 0.005-102.94-8.436-0.016-16.866 0-25.301-0.006 0-6.183-0.01-12.356 0-18.538z"/>
      <path id="path12" d="m418.48 1.01c1.74-0.602 3.598-0.807 5.436-0.764 7.223 0.025 14.446 0.006 21.667 0.01 12.164 0.225 23.773 7.771 29.037 18.719 3.646 7.109 4.021 15.377 3.102 23.176-0.634 8.164-4.058 16.328-10.334 21.74-3.314 2.953-7.443 4.744-10.992 7.375-1.948 1.482-2.047 4.365-1.039 6.428 9.586 14.799 19.551 29.367 29.339 44.039-7.158 0.012-14.316-0.016-21.475 0.012-9.37-14.074-18.643-28.219-27.976-42.313-2.743-4.012-3.489-9.324-1.845-13.902 1.281-3.512 4.35-6.08 7.768-7.406 6.525-2.49 12.958-6.4 16.572-12.559 2.749-4.627 2.606-10.336 1.37-15.4-1.45-6.574-7.855-11.746-14.624-11.52-4.682 0.031-9.36-0.021-14.034 0.021-2.116-0.049-4.107 1.791-4.08 3.934-0.022 33.047 0.011 66.096-0.01 99.141-6.087-0.012-12.168 0-18.255-0.006-0.012-35.576 0.011-71.154-0.012-106.73 0-6.23 4.43-12.098 10.35-13.99z"/>
      <path id="path14" d="m494.26 0.256h19.21c-0.006 40.496 0.012 80.986-0.012 121.48-6.396-0.018-12.796 0-19.198-0.006v-121.47z"/>
    </g>
    <g id="g16">
      <path id="path18" d="m54.173 0.008c3.076-0.01 6.153 0 9.229-0.008 0.013 7.234 0 14.469 0.005 21.701 0.032 6.039-0.139 12.076-0.389 18.107-0.412 8.711-0.957 17.439-2.4 26.051-0.991 5.936-3.044 11.662-5.592 17.098-4.156 8.76-10.686 16.172-18.027 22.406-6.567 5.779-14.405 9.986-22.649 12.834-4.664 1.605-9.463 2.844-14.35 3.533 0.005-6.066 0.005-12.137 0-18.203 5.883-0.883 11.538-2.971 16.791-5.73 6.233-3.295 11.844-7.729 16.566-12.953 4.877-5.395 8.764-11.641 11.714-18.273 3.474-7.625 5.333-15.861 6.597-24.109 1.584-10.482 2.244-21.088 2.489-31.684 0.035-3.583 0.005-7.175 0.016-10.763z"/>
      <path id="path20" d="m67.116 0.02c5.662-0.037 11.328-0.006 16.992-0.016 0.002 40.574 0.002 81.15 0 121.73-5.65 0.012-11.303-0.027-16.953 0.021-0.072-12.938-0.01-25.879-0.03-38.816-0.007-27.639 0.011-55.276-0.009-82.914z"/>
      <path id="path22" d="m87.888 0.004c3.06-0.002 6.118-0.008 9.176 0.002-0.099 12.371 0.322 24.766 1.797 37.057 1.207 9.547 2.909 19.164 6.711 28.059 3.605 8.605 8.801 16.604 15.572 23.051 6.466 6.166 14.302 10.906 22.815 13.635 2.375 0.76 4.805 1.355 7.274 1.715-0.003 6.064-0.006 12.129 0 18.191-4.852-0.658-9.61-1.908-14.24-3.482-5.514-1.918-10.847-4.402-15.745-7.588-3.576-2.301-6.828-5.053-9.952-7.924-5.149-4.748-9.758-10.146-13.219-16.256-2.708-4.758-4.683-9.9-6.23-15.145-1.418-5.271-2.023-10.717-2.573-16.135-1.064-11.709-1.462-23.477-1.386-35.23 0.006-6.649 0.004-13.302 0.006-19.95z"/>
      <path id="path24" d="m54.173 0.008c-0.01 3.588 0.02 7.18-0.016 10.77-0.245 10.596-0.904 21.201-2.489 31.684-1.264 8.248-3.124 16.484-6.597 24.109-2.95 6.635-6.837 12.879-11.714 18.273-4.722 5.227-10.333 9.658-16.566 12.953-5.253 2.762-10.908 4.848-16.791 5.73 0.005 6.066 0.005 12.137 0 18.203 4.887-0.689 9.686-1.928 14.35-3.533 8.244-2.848 16.082-7.055 22.649-12.834 7.341-6.234 13.871-13.646 18.027-22.406 2.547-5.436 4.601-11.162 5.592-17.098 1.443-8.611 1.989-17.34 2.4-26.051 0.25-6.031 0.421-12.068 0.389-18.107-0.005-7.239 0.008-14.474-0.005-21.708-3.077 0.008-6.153-0.002-9.229 0.008"/>
      <path id="path26" d="m67.116 0.02c0.02 27.641 0.002 55.275 0.01 82.916 0.02 12.938-0.042 25.879 0.03 38.816 5.65-0.051 11.302-0.012 16.953-0.021 0.002-40.574 0.002-81.15 0-121.73-5.665 0.014-11.331-0.018-16.993 0.02"/>
      <path id="path28" d="m87.888 0.004c-0.002 6.648 0 13.301 0 19.949-0.076 11.754 0.322 23.521 1.386 35.23 0.55 5.418 1.155 10.863 2.573 16.135 1.547 5.244 3.522 10.387 6.23 15.145 3.46 6.109 8.07 11.508 13.219 16.256 3.124 2.871 6.376 5.623 9.952 7.922 4.898 3.188 10.231 5.672 15.745 7.59 4.63 1.574 9.388 2.824 14.24 3.482-0.006-6.063-0.003-12.127 0-18.191-2.47-0.359-4.899-0.955-7.274-1.715-8.513-2.729-16.35-7.469-22.815-13.635-6.771-6.447-11.967-14.445-15.572-23.051-3.802-8.895-5.504-18.512-6.711-28.061-1.475-12.289-1.896-24.684-1.797-37.055-3.075-0.002-6.134 0.004-9.194 0.006"/>
    </g>
    <path id="path30" d="m562.21 99.303h3.963v22.449l-18.669-15.213c-1.751-1.43-3.919-3.09-6.225-3.09-3.641 0-6.637 3.229-6.637 6.822 0 3.551 2.856 6.455 6.358 6.686v4.334c-6.177-0.691-10.324-4.703-10.324-11.02 0-5.898 4.379-10.971 10.418-10.971 2.582 0 5.164 0.969 7.146 2.58l13.969 11.434-0.01-14.007z"/>
    <path id="path32" d="m532.8 79.432l12.538 9.266 0.095-0.092c-0.509-1.016-0.83-2.166-0.83-3.412 0-5.715 5.302-10.049 10.88-10.049 6.36 0 11.433 5.164 11.433 11.479 0 5.992-4.979 11.572-11.108 11.572-3.506 0-6.454-1.752-9.176-3.779l-15.949-11.85 2.12-3.135zm23.14-0.139c-4.334 0-7.469 3.688-7.469 7.375 0 3.781 3.458 7.377 7.236 7.377 4.013 0 7.332-3.41 7.332-7.377 0-3.873-3.22-7.375-7.1-7.375z"/>
    <path id="path34" d="m530.68 56.256c0 9.955 8.162 18.053 18.195 18.053 9.953 0 18.049-8.098 18.049-18.053 0-10.242-7.96-18.268-18.121-18.268-10.17 0-18.13 8.026-18.13 18.268zm18.2-14c7.854 0 14.003 6.248 14.003 14.223 0 7.479-6.281 13.563-14.003 13.563-7.801 0-14.147-6.084-14.147-13.563 0-8.11 6.08-14.223 14.15-14.223z"/>
    <path id="path36" d="m530.68 18.299c0 9.953 8.162 18.051 18.195 18.051 9.953 0 18.049-8.098 18.049-18.051 0-10.244-7.96-18.27-18.121-18.27-10.17 0-18.13 8.026-18.13 18.27zm18.2-14.002c7.854 0 14.003 6.246 14.003 14.223 0 7.479-6.281 13.563-14.003 13.563-7.801 0-14.147-6.084-14.147-13.563 0-8.108 6.08-14.223 14.15-14.223z"/>
  </g>
</svg>

<?xml version="1.0" encoding="utf-8"?>
<svg id="Ebene_1" enable-background="new 0 0 566.924 121.752" version="1.1" y="0px" x="0px" xmlns="http://www.w3.org/2000/svg" xmlns:bx="https://boxy-svg.com">
  <g id="g3" fill="#fff" transform="matrix(1.058343, 0, 0, 1.058343, 0, 1.903959)" bx:origin="0 0">
    <path id="path6" d="M 207.01 5.277 C 211.734 -0.766 221.511 -1.799 227.307 3.271 C 229.677 5.267 231.338 8.021 232.187 10.986 C 242.917 47.906 253.695 84.808 264.41 121.736 C 258.078 121.742 251.743 121.724 245.411 121.742 C 242.424 111.562 239.508 101.365 236.559 91.176 C 224.313 91.151 212.074 91.17 199.829 91.164 C 196.831 101.348 193.871 111.543 190.928 121.746 C 184.63 121.725 178.332 121.742 172.033 121.736 C 182.227 86.515 192.433 51.297 202.676 16.086 C 203.896 12.4 204.356 8.283 207.006 5.273 M 218.186 27.898 C 213.696 43.193 209.297 58.517 204.832 73.82 C 213.732 73.863 222.628 73.836 231.524 73.836 C 227.074 58.523 222.644 43.211 218.184 27.898 Z"/>
    <path id="path8" d="M 340.41 6.072 C 343.711 1.285 350.091 -1.037 355.706 0.441 C 360.848 1.625 364.781 6.056 366.14 11.045 C 376.859 47.938 387.616 84.818 398.334 121.715 C 391.992 121.764 385.655 121.715 379.314 121.74 C 376.365 111.552 373.449 101.353 370.479 91.164 C 358.254 91.17 346.032 91.143 333.808 91.174 C 330.886 101.369 327.873 111.541 324.952 121.737 C 318.659 121.743 312.371 121.731 306.078 121.743 C 316.266 86.329 326.575 50.946 336.846 15.553 C 337.916 12.35 338.336 8.827 340.406 6.065 M 338.866 73.833 C 347.729 73.845 356.588 73.839 365.45 73.839 C 361.041 58.493 356.56 43.169 352.166 27.825 C 347.736 43.163 343.266 58.487 338.866 73.833 Z"/>
    <path id="path10" d="M 250.24 0.256 L 318.959 0.256 L 318.959 18.789 C 310.523 18.795 302.094 18.779 293.663 18.795 C 293.663 53.108 293.669 87.422 293.658 121.735 L 275.536 121.735 C 275.536 87.424 275.531 53.11 275.541 18.795 C 267.105 18.779 258.675 18.795 250.24 18.789 C 250.24 12.606 250.23 6.433 250.24 0.251 Z"/>
    <path id="path12" d="M 418.48 1.01 C 420.22 0.408 422.078 0.203 423.916 0.246 C 431.139 0.271 438.362 0.252 445.583 0.256 C 457.747 0.481 469.356 8.027 474.62 18.975 C 478.266 26.084 478.641 34.352 477.722 42.151 C 477.088 50.315 473.664 58.479 467.388 63.891 C 464.074 66.844 459.945 68.635 456.396 71.266 C 454.448 72.748 454.349 75.631 455.357 77.694 C 464.943 92.493 474.908 107.061 484.696 121.733 C 477.538 121.745 470.38 121.717 463.221 121.745 C 453.851 107.671 444.578 93.526 435.245 79.432 C 432.502 75.42 431.756 70.108 433.4 65.53 C 434.681 62.018 437.75 59.45 441.168 58.124 C 447.693 55.634 454.126 51.724 457.74 45.565 C 460.489 40.938 460.346 35.229 459.11 30.165 C 457.66 23.591 451.255 18.419 444.486 18.645 C 439.804 18.676 435.126 18.624 430.452 18.666 C 428.336 18.617 426.345 20.457 426.372 22.6 C 426.35 55.647 426.383 88.696 426.362 121.741 C 420.275 121.729 414.194 121.741 408.107 121.735 C 408.095 86.159 408.118 50.581 408.095 15.005 C 408.095 8.775 412.525 2.907 418.445 1.015 Z"/>
    <path id="path14" d="M 494.26 0.256 L 513.47 0.256 C 513.464 40.752 513.482 81.242 513.458 121.736 C 507.062 121.718 500.662 121.736 494.26 121.73 L 494.26 0.26 Z"/>
    <path id="path18" d="M 54.173 0.008 C 57.249 -0.002 60.326 0.008 63.402 0 C 63.415 7.234 63.402 14.469 63.407 21.701 C 63.439 27.74 63.268 33.777 63.018 39.808 C 62.606 48.519 62.061 57.247 60.618 65.859 C 59.627 71.795 57.574 77.521 55.026 82.957 C 50.87 91.717 44.34 99.129 36.999 105.363 C 30.432 111.142 22.594 115.349 14.35 118.197 C 9.686 119.802 4.887 121.041 0 121.73 C 0.005 115.664 0.005 109.593 0 103.527 C 5.883 102.644 11.538 100.556 16.791 97.797 C 23.024 94.502 28.635 90.068 33.357 84.844 C 38.234 79.449 42.121 73.203 45.071 66.571 C 48.545 58.946 50.404 50.71 51.668 42.462 C 53.252 31.98 53.912 21.374 54.157 10.778 C 54.192 7.195 54.162 3.603 54.173 0.015 Z"/>
    <path id="path20" d="M 67.116 0.02 C 72.778 -0.017 78.444 0.014 84.108 0.004 C 84.11 40.578 84.11 81.154 84.108 121.734 C 78.458 121.746 72.805 121.707 67.155 121.755 C 67.083 108.817 67.145 95.876 67.125 82.939 C 67.118 55.3 67.136 27.663 67.116 0.025 Z"/>
    <path id="path22" d="M 87.888 0.004 C 90.948 0.002 94.006 -0.004 97.064 0.006 C 96.965 12.377 97.386 24.772 98.861 37.063 C 100.068 46.61 101.77 56.227 105.572 65.122 C 109.177 73.727 114.373 81.726 121.144 88.173 C 127.61 94.339 135.446 99.079 143.959 101.808 C 146.334 102.568 148.764 103.163 151.233 103.523 C 151.23 109.587 151.227 115.652 151.233 121.714 C 146.381 121.056 141.623 119.806 136.993 118.232 C 131.479 116.314 126.146 113.83 121.248 110.644 C 117.672 108.343 114.42 105.591 111.296 102.72 C 106.147 97.972 101.538 92.574 98.077 86.464 C 95.369 81.706 93.394 76.564 91.847 71.319 C 90.429 66.048 89.824 60.602 89.274 55.184 C 88.21 43.475 87.812 31.707 87.888 19.954 C 87.894 13.305 87.892 6.652 87.894 0.004 Z"/>
    <path id="path24" d="M 54.173 0.008 C 54.163 3.596 54.193 7.188 54.157 10.778 C 53.912 21.374 53.253 31.979 51.668 42.462 C 50.404 50.71 48.544 58.946 45.071 66.571 C 42.121 73.206 38.234 79.45 33.357 84.844 C 28.635 90.071 23.024 94.502 16.791 97.797 C 11.538 100.559 5.883 102.645 0 103.527 C 0.005 109.593 0.005 115.664 0 121.73 C 4.887 121.041 9.686 119.802 14.35 118.197 C 22.594 115.349 30.432 111.142 36.999 105.363 C 44.34 99.129 50.87 91.717 55.026 82.957 C 57.573 77.521 59.627 71.795 60.618 65.859 C 62.061 57.248 62.607 48.519 63.018 39.808 C 63.268 33.777 63.439 27.74 63.407 21.701 C 63.402 14.462 63.415 7.227 63.402 -0.007 C 60.325 0.001 57.249 -0.009 54.173 0.001"/>
    <path id="path26" d="M 67.116 0.02 C 67.136 27.661 67.118 55.295 67.126 82.936 C 67.146 95.874 67.084 108.815 67.156 121.752 C 72.806 121.701 78.458 121.74 84.109 121.731 C 84.111 81.157 84.111 40.581 84.109 0.001 C 78.444 0.015 72.778 -0.017 67.116 0.021"/>
    <path id="path28" d="M 87.888 0.004 C 87.886 6.652 87.888 13.305 87.888 19.953 C 87.812 31.707 88.21 43.474 89.274 55.183 C 89.824 60.601 90.429 66.046 91.847 71.318 C 93.394 76.562 95.369 81.705 98.077 86.463 C 101.537 92.572 106.147 97.971 111.296 102.719 C 114.42 105.59 117.672 108.342 121.248 110.641 C 126.146 113.829 131.479 116.313 136.993 118.231 C 141.623 119.805 146.381 121.055 151.233 121.713 C 151.227 115.65 151.23 109.586 151.233 103.522 C 148.763 103.163 146.334 102.567 143.959 101.807 C 135.446 99.078 127.609 94.338 121.144 88.172 C 114.373 81.725 109.177 73.727 105.572 65.121 C 101.77 56.226 100.068 46.609 98.861 37.06 C 97.386 24.771 96.965 12.376 97.064 0.005 C 93.989 0.003 90.93 0.009 87.87 0.011"/>
    <path id="path30" d="M 562.21 99.303 L 566.173 99.303 L 566.173 121.752 L 547.504 106.539 C 545.753 105.109 543.585 103.449 541.279 103.449 C 537.638 103.449 534.642 106.678 534.642 110.271 C 534.642 113.822 537.498 116.726 541 116.957 L 541 121.291 C 534.823 120.6 530.676 116.588 530.676 110.271 C 530.676 104.373 535.055 99.3 541.094 99.3 C 543.676 99.3 546.258 100.269 548.24 101.88 L 562.209 113.314 L 562.199 99.307 Z"/>
    <path id="path32" d="M 532.8 79.432 L 545.338 88.698 L 545.433 88.606 C 544.924 87.59 544.603 86.44 544.603 85.194 C 544.603 79.479 549.905 75.145 555.483 75.145 C 561.843 75.145 566.916 80.309 566.916 86.624 C 566.916 92.616 561.937 98.196 555.808 98.196 C 552.302 98.196 549.354 96.444 546.632 94.417 L 530.683 82.567 L 532.803 79.432 Z M 555.94 79.293 C 551.606 79.293 548.471 82.981 548.471 86.668 C 548.471 90.449 551.929 94.045 555.707 94.045 C 559.72 94.045 563.039 90.635 563.039 86.668 C 563.039 82.795 559.819 79.293 555.939 79.293 Z"/>
    <path id="path34" d="M 530.68 56.256 C 530.68 66.211 538.842 74.309 548.875 74.309 C 558.828 74.309 566.924 66.211 566.924 56.256 C 566.924 46.014 558.964 37.988 548.803 37.988 C 538.633 37.988 530.673 46.014 530.673 56.256 Z M 548.88 42.256 C 556.734 42.256 562.883 48.504 562.883 56.479 C 562.883 63.958 556.602 70.042 548.88 70.042 C 541.079 70.042 534.733 63.958 534.733 56.479 C 534.733 48.369 540.813 42.256 548.883 42.256 Z"/>
    <path id="path36" d="M 530.68 18.299 C 530.68 28.252 538.842 36.35 548.875 36.35 C 558.828 36.35 566.924 28.252 566.924 18.299 C 566.924 8.055 558.964 0.029 548.803 0.029 C 538.633 0.029 530.673 8.055 530.673 18.299 Z M 548.88 4.297 C 556.734 4.297 562.883 10.543 562.883 18.52 C 562.883 25.999 556.602 32.083 548.88 32.083 C 541.079 32.083 534.733 25.999 534.733 18.52 C 534.733 10.412 540.813 4.297 548.883 4.297 Z"/>
  </g>
</svg>
